X:082 
T:Humors of Tulla (reel) 
B:CRE3.135 (PlÃÂÃÂÃÂÃÂ©arÃÂÃÂÃÂÃÂ¡ca na TulaÃÂÃÂÃÂÃÂ­)
F:file ID: cre.3/082hu_tulla
R:reel
M:C
L:1/8
Q:180
K:D
d2Ad BdAc|d2fd edBc|d2Ad BdA2 |1 (3Bcd ef gefe:|2 (3Bcd ef gefg||
|:aff2 dff2|af~f2 gee2|af~f2 dfed |1 (3Bcd ef g2fg:|\
[2 (3Bcd ef gefe||

%%%

